X:6352
T:Swallow, The
O:england
R:reel
H:Also played in F. See also #718
D:Martin Hayes
D:Four Men and a Dog: Shifting Gravel
D:Moher: Out on the Ocean
M:C|
K:G
ed~d2 BG~G2|EAAG A2GE|DGBG DGBG|A2GA BG~G2|
d3^c d2BA|GABG AGEG|DGBG DGBG|A2GA BG~G2||
Bd~d2 edBd|eaag agef|~g3e d2Bd|~g3a bgaf|
~g3e d2Bd|eaag agef|~g3e d2Bd|~g3a bgag||
